X:1
T:Clooney, CMD
T:Clooney, CMD
T:Daniel Brink Towner, 1899
T:Public Domain Courtesy of the Cyber Hymnal™
C:Daniel Brink Towner, 1899
Z:Public Domain
Z:Courtesy of the Cyber Hymnal™
%%score ( 1 2 ) ( 3 4 )
L:1/8
Q:1/4=107
M:6/8
K:Bb
V:1 treble 
V:2 treble 
V:3 bass 
V:4 bass 
V:1
 [DF] | [DF]2 [CE] [B,D]2 [FB] | [FA]2 [EG] [EG]2 [EG] | [DF]2 [B,D] ([A,C][B,D])[CE] | %4
 [B,D]3- [B,D]2 [DF] | [DF]2 [CE] [B,D]2 [FB] | [FA]2 [EG] [EG]2 [EB] | (AG)[_EA] [=Ec]2 [CE] | %8
 F3- F2 [EF] | [Ec]2 [EA] [EF]2 F | [Fd]2 [DB] [DF]2 [DF] | (GA)[DB] [=Ed]2 [Ec] | %12
 [Fc]3- [Fc]2 [EF] | [DF]2 [CE] [B,D]2 [FB] | [FA]2 [EG] [EG]2 [EG] | ([DF][EA])[DB] [Ec]2 [EA] | %16
 [DB]3- [DB]2 |] %17
V:2
 x | x6 | x6 | x6 | x6 | x6 | x6 | =E2 x4 | F3- F2 x | x5 F | x6 | =E2 x4 | x6 | x6 | x6 | x6 | %16
 x5 |] %17
V:3
 [B,,B,] | [B,,B,]2 [B,,B,] [B,,F,]2 [D,B,] | [E,B,]2 [E,B,] [E,B,]2 [E,B,] | [F,B,]2 F, F,2 F, | %4
 [B,,F,]3- [B,,F,]2 [B,,B,] | [B,,B,]2 [B,,B,] [B,,F,]2 [D,B,] | [E,B,]2 [E,B,] [E,B,]2 [G,B,] | %7
 [F,C]2 [F,C] [C,B,]2 [C,B,] | [F,A,]3- [F,A,]2 [F,A,] | [F,A,]2 [F,C] [F,C]2 [F,A,] | %10
 [B,,B,]2 [B,,F,] [B,,B,]2 [B,,B,] | ([E,B,][C,F,])[B,,F,] [C,B,]2 [C,B,] | %12
 [F,A,]3- [F,A,]2 [F,A,] | [B,,B,]2 [B,,B,] [B,,F,]2 [D,B,] | [E,B,]2 [E,B,] [E,B,]2 [E,B,] | %15
 (B,C)[F,B,] [F,A,]2 F, | [B,,F,]3- [B,,F,]2 |] %17
V:4
 x | x6 | x6 | x2 F, F,2 F, | x6 | x6 | x6 | x6 | x6 | x6 | x6 | x6 | x6 | x6 | x6 | F,2 x2 F, x | %16
 x5 |] %17

